packages/sources/icons/src/vitamix/lock-line.svg

<svg width="16" height="16" viewBox="0 0 16 16" fill="none" xmlns="http://www.w3.org/2000/svg">
<path fill-rule="evenodd" clip-rule="evenodd" d="M4 5.33334V6H2.66667C2.29848 6 2 6.29848 2 6.66667V14.6667C2 15.0349 2.29848 15.3333 2.66667 15.3333H13.3333C13.7015 15.3333 14 15.0349 14 14.6667V6.66667C14 6.29848 13.7015 6 13.3333 6H12V5.33334C12 3.1242 10.2091 1.33334 8 1.33334C5.79086 1.33334 4 3.1242 4 5.33334ZM3.33333 14V7.33334H12.6667V14H3.33333ZM7.33335 11.1547C6.81073 10.8529 6.55593 10.2378 6.71212 9.65486C6.86831 9.07195 7.39655 8.66662 8.00002 8.66662C8.6035 8.66662 9.13173 9.07195 9.28792 9.65486C9.44411 10.2378 9.18931 10.8529 8.66669 11.1547V12.6667H7.33335V11.1547ZM10.6667 5.33334V6H5.33333V5.33334C5.33333 3.86058 6.52724 2.66667 8 2.66667C9.47276 2.66667 10.6667 3.86058 10.6667 5.33334Z" fill="#001018"/>
</svg>

<svg width="16" height="16" fill="none" xmlns="http://www.w3.org/2000/svg"><path fill-rule="evenodd" clip-rule="evenodd" d="M4 5.333V6H2.667A.667.667 0 0 0 2 6.667v8c0 .368.298.666.667.666h10.666a.667.667 0 0 0 .667-.666v-8A.667.667 0 0 0 13.333 6H12v-.667a4 4 0 0 0-8 0zM3.333 14V7.333h9.334V14H3.333zm4-2.845a1.333 1.333 0 1 1 1.334 0v1.512H7.333v-1.512zm3.334-5.822V6H5.333v-.667a2.667 2.667 0 0 1 5.334 0z" fill="#001018"/></svg>
